assets/img/raster.svg

<?xml version="1.0" encoding="UTF-8" standalone="no"?>
<svg width="500px" height="500px" viewBox="0 0 500 500" version="1.1" xmlns="http://www.w3.org/2000/svg" xmlns:xlink="http://www.w3.org/1999/xlink">
    <!-- Generator: Sketch 3.8.2 (29753) - http://www.bohemiancoding.com/sketch -->
    <title>raster</title>
    <desc>Created with Sketch.</desc>
    <defs>
        <rect id="path-1" x="0.835526316" y="0.597533632" width="498.330044" height="498.804933"></rect>
        <rect id="path-3" x="0.835526316" y="0.597533632" width="498.330044" height="498.804933"></rect>
        <rect id="path-5" x="0.835526316" y="0.597533632" width="498.330044" height="498.804933"></rect>
        <rect id="path-7" x="0.835526316" y="0.597533632" width="498.330044" height="498.804933"></rect>
    </defs>
    <g id="Page-1" stroke="none" stroke-width="1" fill="none" fill-rule="evenodd">
        <g id="Group">
            <g id="Clipped">
                <mask id="mask-2" fill="white">
                    <use xlink:href="#path-1"></use>
                </mask>
                <g id="SVGID_3_"></g>
                <path d="M250.010965,128.831839 C318.810307,128.840807 374.582237,186.253363 374.582237,257.077354 C374.582237,186.253363 430.354167,128.840807 499.155702,128.831839 C430.354167,128.831839 374.582237,71.4204036 374.582237,0.597533632 C374.582237,71.4204036 318.810307,128.831839 250.010965,128.831839" id="Shape" fill="#404041" mask="url(#mask-2)"></path>
            </g>
            <g id="Clipped">
                <mask id="mask-4" fill="white">
                    <use xlink:href="#path-3"></use>
                </mask>
                <g id="SVGID_3_"></g>
                <path d="M249.991228,128.831839 C181.1875,128.831839 125.417763,71.4204036 125.417763,0.597533632 C125.417763,71.4204036 69.6436404,128.831839 0.844298246,128.831839 C69.6436404,128.840807 125.417763,186.253363 125.417763,257.077354 C125.417763,186.253363 181.1875,128.840807 249.991228,128.831839" id="Shape" fill="#404041" mask="url(#mask-4)"></path>
            </g>
            <g id="Clipped">
                <mask id="mask-6" fill="white">
                    <use xlink:href="#path-5"></use>
                </mask>
                <g id="SVGID_3_"></g>
                <path d="M374.582237,257.077354 C374.582237,327.900224 318.805921,385.31278 250,385.31278 C314.156798,385.31278 366.991228,435.230942 373.830044,499.403587 L375.336623,499.403587 C382.174342,435.232063 435.009868,385.31278 499.16557,385.31278 C430.358553,385.311659 374.582237,327.899103 374.582237,257.077354" id="Shape" fill="#404041" mask="url(#mask-6)"></path>
            </g>
            <g id="Clipped">
                <mask id="mask-8" fill="white">
                    <use xlink:href="#path-7"></use>
                </mask>
                <g id="SVGID_3_"></g>
                <path d="M125.417763,257.077354 C125.417763,327.900224 69.6436404,385.31278 0.835526316,385.31278 C64.9945175,385.31278 117.824561,435.230942 124.669956,499.403587 L126.172149,499.403587 C133.012061,435.232063 185.842105,385.31278 250.001096,385.31278 C181.196272,385.311659 125.417763,327.899103 125.417763,257.077354" id="Shape" fill="#404041" mask="url(#mask-8)"></path>
            </g>
        </g>
    </g>
</svg>

<svg width="500" height="500" viewBox="0 0 500 500" xmlns="http://www.w3.org/2000/svg" xmlns:xlink="http://www.w3.org/1999/xlink"><title>raster</title><defs><path id="a" d="M.836.598h498.33v498.805H.836z"/><path id="c" d="M.836.598h498.33v498.805H.836z"/><path id="e" d="M.836.598h498.33v498.805H.836z"/><path id="g" d="M.836.598h498.33v498.805H.836z"/></defs><g fill="none" fill-rule="evenodd"><mask id="b" fill="#fff"><use xlink:href="#a"/></mask><path d="M250.011 128.832c68.8.009 124.571 57.421 124.571 128.245 0-70.824 55.772-128.236 124.574-128.245-68.802 0-124.574-57.412-124.574-128.234 0 70.822-55.772 128.234-124.571 128.234" fill="#404041" mask="url(#b)"/><mask id="d" fill="#fff"><use xlink:href="#c"/></mask><path d="M249.991 128.832c-68.804 0-124.573-57.412-124.573-128.234 0 70.822-55.774 128.234-124.574 128.234 68.8.009 124.574 57.421 124.574 128.245 0-70.824 55.77-128.236 124.573-128.245" fill="#404041" mask="url(#d)"/><g><mask id="f" fill="#fff"><use xlink:href="#e"/></mask><path d="M374.582 257.077c0 70.823-55.776 128.236-124.582 128.236 64.157 0 116.991 49.918 123.83 114.09h1.507c6.837-64.17 59.673-114.09 123.829-114.09-68.807-.001-124.584-57.414-124.584-128.236" fill="#404041" mask="url(#f)"/></g><g><mask id="h" fill="#fff"><use xlink:href="#g"/></mask><path d="M125.418 257.077c0 70.823-55.774 128.236-124.582 128.236 64.159 0 116.989 49.918 123.834 114.09h1.502c6.84-64.17 59.67-114.09 123.83-114.09-68.806-.001-124.584-57.414-124.584-128.236" fill="#404041" mask="url(#h)"/></g></g></svg>
